X: 19708
T: Jenny Lind
R: polka
M: 2/4
K: Dmajor
|:FA GB|Af f/e/f|Ge ed/e/|Fd dc/d/|
FA GB|Af f/e/f|fe Bc|d2 d2:|
|:aa/f/ df|aa/f/ df|gg/e/ ce|gg/e/ ce|
aa/f/ df|aa/f/ df|ge cA|d2 d2:|

